src/assets/icons/logux-light.svg

<svg xmlns="http://www.w3.org/2000/svg" viewBox="0 0 20 20" width="20" height="20">
	<path fill="#1F1F1F" d="M0.582454 10.4568C0.561434 10.4869 0.540912 10.5173 0.520895 10.548C-0.00170172 11.3625 -0.13287 12.1129 0.185311 13.0911C0.570765 14.2768 1.18921 14.7394 2.53466 15.1638C4.01648 15.6314 4.36946 15.7732 5.13726 16.3277C5.4458 16.5501 5.73277 16.801 5.9944 17.0771L7.08479 16.715C6.92861 16.5276 6.7633 16.348 6.58946 16.1768C6.33096 15.9225 6.05345 15.6884 5.75933 15.4763C4.86739 14.8321 4.44661 14.6628 2.85492 14.1607C1.80245 13.8285 1.45232 13.5667 1.19258 12.7675C1.01336 12.2166 1.03544 11.8272 1.25622 11.3875L0.582713 10.4571L0.582454 10.4568ZM1.85778 8.61552C2.0389 8.28603 2.18849 7.94017 2.30453 7.58253C2.57414 6.75656 2.62063 6.16487 2.58453 5.05267C2.55674 4.20176 2.56895 3.87682 2.69414 3.4376C2.86245 2.84721 3.22453 2.35604 3.83856 1.91293C4.52894 1.41475 5.17622 1.23656 5.88141 1.3176C6.09061 1.34315 6.29736 1.38581 6.49959 1.44514L5.81154 2.36903C5.79422 2.3672 5.7769 2.3653 5.75959 2.36332C5.32349 2.31319 4.94011 2.4189 4.46037 2.76488C3.70115 3.31293 3.59882 3.67241 3.64245 5.0189C3.68219 6.24306 3.62765 6.93942 3.31102 7.90799C3.12299 8.48595 2.86155 9.03738 2.5331 9.54877L1.85778 8.61552ZM7.35388 18.8443C8.00531 19.6459 8.66167 19.9986 9.74842 20.0002C10.9341 20.002 11.6074 19.5828 12.3193 18.6171C12.4084 18.4963 12.7965 17.9423 12.9089 17.7901C13.15 17.4636 13.3752 17.1958 13.6318 16.9407C13.8563 16.7177 14.0981 16.5127 14.3549 16.3277C14.7092 16.0716 14.9796 15.9028 15.3131 15.7511L15.3191 14.6098C14.696 14.8415 14.3061 15.0618 13.7328 15.476C13.4312 15.6934 13.1473 15.9341 12.8835 16.196C12.5848 16.4929 12.3263 16.8007 12.0557 17.1675C11.9331 17.3334 11.5445 17.8877 11.4658 17.9947C10.9367 18.7121 10.5565 18.949 9.74998 18.9477C9.16505 18.9469 8.80349 18.822 8.44712 18.4812L7.35388 18.8443ZM17.4339 15.022C18.4518 14.6397 18.9663 14.1498 19.3128 13.0919C19.6479 12.0688 19.5115 11.3036 18.9614 10.4706C18.8084 10.2389 18.1876 9.42981 18.0728 9.26695C17.6884 8.72227 17.4152 8.20695 17.2113 7.58253C17.0835 7.19137 17.0037 6.85266 16.9567 6.48513L15.8614 6.13864C15.9004 6.76409 15.9985 7.27734 16.2043 7.90773C16.4437 8.6402 16.7653 9.24643 17.2063 9.87137C17.3414 10.0631 17.9487 10.8545 18.0765 11.048C18.4583 11.6262 18.5362 12.0636 18.3063 12.7659C18.1204 13.3334 17.8985 13.636 17.4398 13.8737L17.4339 15.022ZM16.891 4.25578C16.8339 3.12825 16.5505 2.55682 15.6598 1.91319C15.0523 1.47423 14.4658 1.29319 13.8326 1.32773C13.5466 1.34332 13.2596 1.40046 12.9188 1.50072C12.7897 1.53838 12.6578 1.58098 12.4804 1.6402C12.4832 1.63942 12.1375 1.75604 12.0365 1.78955C11.1786 2.07267 10.5448 2.20202 9.7492 2.20202C9.35569 2.20202 9.00375 2.16929 8.64583 2.10072L7.95855 3.02332C8.55232 3.17916 9.10297 3.25449 9.7492 3.25449C10.6765 3.25449 11.4136 3.1041 12.37 2.78851C13.6076 2.37994 13.5487 2.39734 13.8905 2.37864C14.2752 2.35786 14.623 2.46488 15.0375 2.76436C15.5079 3.10462 15.7157 3.37994 15.7978 3.90981L16.8913 4.25552L16.891 4.25578Z" />
	<path fill="#F5A623" d="M18.9253 9.54338C18.95 9.50779 18.9708 9.47688 18.9866 9.45221C19.5098 8.63766 19.6404 7.88727 19.3228 6.90935C18.9373 5.72364 18.3189 5.26104 16.9731 4.83663C15.4913 4.36909 15.1386 4.22728 14.3708 3.67273C14.0623 3.45033 13.7753 3.19945 13.5137 2.92338L12.4233 3.28546C12.5795 3.47287 12.7448 3.65248 12.9186 3.82364C13.1718 4.07299 13.4459 4.30546 13.7487 4.52416C14.6407 5.16831 15.0615 5.33767 16.6531 5.83974C17.7056 6.17195 18.0557 6.43377 18.3155 7.23299C18.4947 7.7839 18.4726 8.17325 18.2518 8.61299L18.9253 9.54338ZM17.65 11.3847C17.4689 11.7142 17.3193 12.06 17.2033 12.4177C16.9334 13.2436 16.8872 13.8353 16.9233 14.9475C16.9508 15.7984 16.9389 16.1234 16.8134 16.5626C16.6453 17.153 16.283 17.6442 15.669 18.0873C14.9789 18.5855 14.3313 18.7636 13.6264 18.6826C13.4172 18.657 13.2104 18.6144 13.0082 18.5551L13.6963 17.6314L13.7482 17.6371C14.1841 17.6873 14.5677 17.5816 15.0474 17.2356C15.8066 16.6875 15.909 16.328 15.8654 14.9816C15.8254 13.7574 15.8802 13.061 16.1968 12.0925C16.3847 11.5145 16.6461 10.9631 16.9744 10.4517L17.65 11.3847ZM12.1537 1.15585C11.5022 0.354291 10.8461 0.00156433 9.75938 5.88736e-06C8.57341 -0.00181229 7.90042 0.417408 7.18821 1.38312C7.09912 1.5039 6.71107 2.05793 6.5986 2.21013C6.35756 2.53663 6.13263 2.80442 5.87575 3.05948C5.65119 3.2825 5.4094 3.48747 5.15263 3.67247C4.7986 3.92858 4.52821 4.09741 4.19471 4.24909L4.18873 5.39039C4.81159 5.1587 5.20146 4.93844 5.77497 4.52416C6.07655 4.30684 6.36055 4.06609 6.62432 3.80416C6.92302 3.50728 7.18146 3.19948 7.45211 2.83273C7.57471 2.66676 7.96302 2.11247 8.04198 2.00546C8.57081 1.28806 8.95107 1.05117 9.75782 1.05247C10.3428 1.05325 10.7043 1.17819 11.0604 1.51897L12.1537 1.15585ZM2.07367 4.97819C1.05601 5.36052 0.541463 5.85039 0.194969 6.90831C-0.140095 7.93143 -0.00373187 8.69662 0.546138 9.52961C0.699385 9.7613 1.32016 10.5704 1.43497 10.7332C1.81912 11.2779 2.09237 11.7932 2.29653 12.4177C2.42432 12.8088 2.5038 13.1475 2.55081 13.5151L3.6464 13.8616C3.60743 13.2361 3.50925 12.7229 3.30328 12.0925C3.0638 11.36 2.74224 10.7538 2.30146 10.1288C2.16614 9.93714 1.55886 9.14572 1.43107 8.95221C1.04925 8.37403 0.971333 7.93662 1.20146 7.23429C1.38718 6.66676 1.60925 6.36416 2.0677 6.1265L2.07367 4.97819ZM2.61653 15.7444C2.67367 16.8719 2.95731 17.4434 3.84769 18.087C4.45549 18.526 5.04198 18.707 5.67523 18.6725C5.96094 18.6569 6.24795 18.5997 6.58899 18.4995C6.73594 18.4558 6.88203 18.4093 7.02717 18.36C7.02458 18.3608 7.37003 18.2442 7.47133 18.2106C8.32925 17.9275 8.96302 17.7982 9.7586 17.7982C10.1521 17.7982 10.5041 17.8309 10.862 17.8995L11.5492 16.9769C10.9555 16.821 10.4048 16.7457 9.7586 16.7457C8.83133 16.7457 8.09393 16.8961 7.13782 17.2117C5.8999 17.6203 5.95912 17.6029 5.6173 17.6216C5.23237 17.6423 4.88484 17.5353 4.47003 17.2358C3.9999 16.8956 3.79211 16.6203 3.71003 16.0904L2.61653 15.7444Z" />
</svg>

<svg xmlns="http://www.w3.org/2000/svg" width="20" height="20"><path fill="#1F1F1F" d="m.582 10.457-.061.091c-.523.815-.654 1.565-.336 2.543.386 1.186 1.004 1.648 2.35 2.073 1.481.467 1.834.61 2.602 1.164q.464.334.857.75l1.09-.363a7.132 7.132 0 0 0-1.325-1.239c-.892-.644-1.312-.813-2.904-1.315-1.053-.332-1.403-.594-1.662-1.393-.18-.551-.158-.94.063-1.38zm1.276-1.841q.27-.496.447-1.033c.27-.826.316-1.418.28-2.53-.028-.851-.016-1.176.11-1.615.167-.59.53-1.082 1.144-1.525.69-.498 1.337-.676 2.042-.595q.315.038.619.127l-.688.924-.052-.006c-.437-.05-.82.056-1.3.402-.759.548-.861.907-.818 2.254.04 1.224-.014 1.92-.331 2.889a7 7 0 0 1-.778 1.64zm5.496 10.228C8.005 19.646 8.662 20 9.748 20c1.186.002 1.86-.417 2.571-1.383.09-.12.477-.675.59-.827.241-.326.466-.594.723-.85q.337-.334.723-.612c.354-.256.625-.425.958-.577l.006-1.141c-.623.232-1.013.452-1.586.866a7 7 0 0 0-.85.72 8 8 0 0 0-.827.971c-.123.166-.511.72-.59.828-.53.717-.91.954-1.716.953-.585-.001-.947-.126-1.303-.467zm10.08-3.822c1.018-.382 1.532-.872 1.879-1.93.335-1.023.199-1.788-.352-2.621-.153-.232-.773-1.041-.888-1.204a6.1 6.1 0 0 1-.862-1.684 5.8 5.8 0 0 1-.254-1.098L15.86 6.14c.04.625.137 1.138.343 1.769.24.732.561 1.338 1.002 1.963.135.192.743.983.87 1.177.382.578.46 1.016.23 1.718-.186.567-.408.87-.866 1.108zM16.89 4.256c-.057-1.128-.34-1.7-1.231-2.343-.608-.439-1.194-.62-1.827-.585a4 4 0 0 0-.914.173c-.13.037-.261.08-.439.14l-.444.149c-.857.283-1.491.412-2.287.412-.393 0-.745-.033-1.103-.101l-.687.922a6.8 6.8 0 0 0 1.79.231c.928 0 1.665-.15 2.621-.465 1.238-.41 1.179-.392 1.52-.41.385-.021.733.086 1.147.385.47.34.679.616.76 1.146z"/><path fill="#F5A623" d="m18.925 9.543.062-.09c.523-.815.653-1.566.336-2.544-.386-1.185-1.004-1.648-2.35-2.072-1.482-.468-1.834-.61-2.602-1.164a6 6 0 0 1-.857-.75l-1.09.362q.232.282.495.539c.253.249.527.481.83.7.892.644 1.313.814 2.904 1.316 1.053.332 1.403.594 1.663 1.393.179.55.157.94-.064 1.38zm-1.275 1.842q-.271.496-.447 1.033c-.27.826-.316 1.417-.28 2.53.028.85.016 1.175-.11 1.615-.168.59-.53 1.081-1.144 1.524-.69.498-1.338.677-2.043.596a4 4 0 0 1-.618-.128l.688-.924.052.006c.436.05.82-.055 1.3-.401.759-.549.861-.908.817-2.254-.04-1.225.015-1.921.332-2.89.188-.578.45-1.129.777-1.64zm-5.496-10.23C11.502.356 10.846.003 9.759 0 8.573-.002 7.9.417 7.19 1.383c-.09.12-.478.675-.59.827a7 7 0 0 1-.723.85 6 6 0 0 1-.723.612 5.3 5.3 0 0 1-.958.577L4.189 5.39c.623-.231 1.012-.452 1.586-.866q.454-.326.85-.72c.298-.297.556-.605.827-.971.123-.166.511-.72.59-.828.529-.717.91-.954 1.716-.953.585.001.946.126 1.302.467zM2.074 4.979C1.056 5.361.54 5.85.195 6.908-.14 7.931-.004 8.697.546 9.53c.153.231.774 1.04.889 1.203.384.545.657 1.06.862 1.685.127.39.207.73.254 1.097l1.095.347a6.7 6.7 0 0 0-.343-1.77 7.1 7.1 0 0 0-1.002-1.963c-.135-.192-.742-.983-.87-1.177-.382-.578-.46-1.015-.23-1.718.186-.567.408-.87.867-1.107zm.543 10.766c.057 1.128.34 1.7 1.23 2.343.608.439 1.195.62 1.828.585a4 4 0 0 0 .914-.172q.22-.066.438-.14l.444-.15c.858-.283 1.492-.412 2.288-.412.393 0 .745.033 1.103.102l.687-.923a6.8 6.8 0 0 0-1.79-.231c-.928 0-1.665.15-2.621.466-1.238.408-1.179.39-1.52.41-.386.02-.733-.087-1.148-.386-.47-.34-.678-.616-.76-1.146z"/></svg>
